X: 05033
T: HANK'S MOTHER
C: Bob McQuillen 10 Aug 80
B: Bob's Note Book 5 #33
%R: jig
Z: 2021 John Chambers <jc:trillian.mit.edu>
M: 6/8
L: 1/8
K: Em
B \
| ege dBG | ABA FED | EFG ABc | ded B2d |\
| ege dBG | GAB A2d | edB dBA | GEE E2 :|
|: e \
| gfe dBG | GAB AFD | eBB dBG | ABA AFD |\
| EFG FGA | GAB A2e | ded BAB | GEE E2 :|
%%begintext align
%% Hank Peirce's
%% mother is Maggi Peirce - She has many
%% friends and admirers and surely I'm
%% glad I'm one of them. Keep the kettle boilin',
%% Maggi dear!
%%endtext

%%sep 1 1 500

%%sep 1 1 500

